X:1
T:Blagdon, 87.87.87
T:Charles Edward Stephens, 1889
T:Blagdon, 87.87.87
T:Public Domain
C:Charles Edward Stephens, 1889
Z:Public Domain
%%score ( 1 2 ) ( 3 4 )
L:1/8
M:none
K:G
V:1 treble 
V:2 treble 
V:3 bass 
V:4 bass 
V:1
 [B,B]2 [CA]2 | [DG]2 [B,G]2 | [DF]2 [CE]2 | [B,D]2 [B,D]2 | [B,G]2 [B,G]2 | [EA]2 [DB]2 | %6
 [Cc]2 [G,E]2 | [B,F]4 | [^DB]2 (EF) | G2 [EG]2 | [^CF]2 [CE]2 | D2 [B,D]2 | [B,D]2 (D^C) | %13
 [B,E]2 [EG]2 | [DF]2 [^CE]2 x | D4 | [DG]2 D2 | [CA]2 [CD]2 | (B,D)([=Fd][Ec]) | [DB]2 [DA]2 x | %20
 [Dd]2 [B,G]2 | [Cc]2 E2 | (FG) [DA]2 | [DG]4 |] %24
V:2
 x4 | x4 | x4 | x4 | x4 | x4 | x4 | x4 | x2 A2 | G2 x2 | x4 | D2 x2 | x2 F2 | x4 | x5 | D4 | %16
 x2 D2 | x4 | B2 x2 | x5 | x4 | x2 E2 | D2 x2 | x4 |] %24
V:3
 [G,,D,]2 [A,,F,]2 | [B,,G,]2 [E,G,]2 | [B,,B,]2 [C,G,]2 | [G,,G,]2 (G,F,) | [E,G,]2 [D,G,]2 | %5
 E,F, [B,,G,]2 | [A,,E,]2 [C,E,]2 | [B,,^D,]4 | [B,,F,]2 (^C,^D,) | [E,B,]2 [^C,B,]2 | %10
 [F,^A,]2 [^A,,F,]2 | [B,,F,]2 [B,,F,]2 | (D,^C,)(B,,A,,) | [G,,E,]2 [G,,B,]2 | A,,2 z G, x | %15
 [D,F,]4 | [G,,B,]2 [G,B,]2 | [D,F,]2 ([E,G,][F,A,]) | G,2 (B,,C,) | G,2 z C, x | %20
 [B,,G,]2 [E,G,]2 | [A,,A,]2 [C,A,]2 | (A,B,) [D,F,C]2 | [G,,G,B,]4 |] %24
V:4
 x4 | x4 | x4 | x2 G,2 | x4 | C,2 x2 | x4 | x4 | x2 B,2 | x4 | x4 | x4 | F,2 D,2 | x4 | A,3 A,,2 | %15
 x4 | x4 | x4 | G,2 G,2 | D,3 F,2 | x4 | x4 | D,2 x2 | x4 |] %24

